www/assets/icons/healing.svg

<svg width="24" height="24" viewBox="0 0 24 24" xmlns="http://www.w3.org/2000/svg" fill='currentColor'><path d="M17.745 12L21.725 8.02004C22.115 7.63004 22.115 7.00004 21.725 6.61004L17.385 2.27004C16.995 1.88004 16.365 1.88004 15.975 2.27004L11.995 6.25004L8.01503 2.27004C7.81503 2.08004 7.56503 1.98004 7.30503 1.98004C7.05503 1.98004 6.79503 2.08004 6.60503 2.27004L2.26503 6.61004C1.87503 7.00004 1.87503 7.63004 2.26503 8.02004L6.24503 12L2.26503 15.98C1.87503 16.37 1.87503 17 2.26503 17.39L6.60503 21.73C6.99503 22.12 7.62503 22.12 8.01503 21.73L11.995 17.75L15.975 21.73C16.175 21.93 16.425 22.02 16.685 22.02C16.945 22.02 17.195 21.92 17.395 21.73L21.735 17.39C22.125 17 22.125 16.37 21.735 15.98L17.745 12ZM12.015 8.98004C12.565 8.98004 13.015 9.43004 13.015 9.98004C13.015 10.53 12.565 10.98 12.015 10.98C11.465 10.98 11.015 10.53 11.015 9.98004C11.015 9.43004 11.465 8.98004 12.015 8.98004ZM7.30503 10.94L3.67503 7.32004L7.30503 3.69004L10.925 7.31004L7.30503 10.94ZM10.015 12.98C9.46503 12.98 9.01503 12.53 9.01503 11.98C9.01503 11.43 9.46503 10.98 10.015 10.98C10.565 10.98 11.015 11.43 11.015 11.98C11.015 12.53 10.565 12.98 10.015 12.98ZM12.015 14.98C11.465 14.98 11.015 14.53 11.015 13.98C11.015 13.43 11.465 12.98 12.015 12.98C12.565 12.98 13.015 13.43 13.015 13.98C13.015 14.53 12.565 14.98 12.015 14.98ZM14.015 10.98C14.565 10.98 15.015 11.43 15.015 11.98C15.015 12.53 14.565 12.98 14.015 12.98C13.465 12.98 13.015 12.53 13.015 11.98C13.015 11.43 13.465 10.98 14.015 10.98ZM16.675 20.32L13.045 16.7L16.675 13.07L20.295 16.69L16.675 20.32Z"/></svg>

<svg xmlns="http://www.w3.org/2000/svg" width="24" height="24" viewBox="0 0 24 24" fill='currentColor'><path d="m17.745 12 3.98-3.98a.996.996 0 0 0 0-1.41l-4.34-4.34a.996.996 0 0 0-1.41 0l-3.98 3.98-3.98-3.98a1 1 0 0 0-1.41 0l-4.34 4.34a.996.996 0 0 0 0 1.41L6.245 12l-3.98 3.98a.996.996 0 0 0 0 1.41l4.34 4.34c.39.39 1.02.39 1.41 0l3.98-3.98 3.98 3.98c.2.2.45.29.71.29s.51-.1.71-.29l4.34-4.34a.996.996 0 0 0 0-1.41zm-5.73-3.02c.55 0 1 .45 1 1s-.45 1-1 1-1-.45-1-1 .45-1 1-1m-4.71 1.96-3.63-3.62 3.63-3.63 3.62 3.62zm2.71 2.04c-.55 0-1-.45-1-1s.45-1 1-1 1 .45 1 1-.45 1-1 1m2 2c-.55 0-1-.45-1-1s.45-1 1-1 1 .45 1 1-.45 1-1 1m2-4c.55 0 1 .45 1 1s-.45 1-1 1-1-.45-1-1 .45-1 1-1m2.66 9.34-3.63-3.62 3.63-3.63 3.62 3.62z"/></svg>
